humanity-icon-theme/Humanity/animations/24/brasero-disc-60.svg

<?xml version="1.0" encoding="UTF-8" standalone="no"?>
<!-- Created with Inkscape (http://www.inkscape.org/) -->
<svg
   xmlns:svg="http://www.w3.org/2000/svg"
   xmlns="http://www.w3.org/2000/svg"
   xmlns:xlink="http://www.w3.org/1999/xlink"
   version="1.0"
   width="24"
   height="24"
   id="svg2">
  <defs
     id="defs4">
    <linearGradient
       id="linearGradient3587-6-5">
      <stop
         id="stop3589-9-2"
         style="stop-color:#000000;stop-opacity:1"
         offset="0" />
      <stop
         id="stop3591-7-4"
         style="stop-color:#363636;stop-opacity:1"
         offset="1" />
    </linearGradient>
    <linearGradient
       x1="15.669166"
       y1="-2.6219723"
       x2="15.669166"
       y2="11.969362"
       id="linearGradient2399"
       xlink:href="#linearGradient3587-6-5"
       gradientUnits="userSpaceOnUse"
       gradientTransform="matrix(0.9302326,0,0,1.2359551,-10.575969,6.1536003)" />
    <linearGradient
       x1="35.007519"
       y1="23.178743"
       x2="35.007519"
       y2="4.9945626"
       id="linearGradient2402"
       xlink:href="#linearGradient3587-6-5"
       gradientUnits="userSpaceOnUse"
       gradientTransform="translate(-24.785715,-2.035714)" />
    <linearGradient
       x1="15.669166"
       y1="-2.6219723"
       x2="15.669166"
       y2="11.969362"
       id="linearGradient2458"
       xlink:href="#linearGradient3587-6-5"
       gradientUnits="userSpaceOnUse"
       gradientTransform="matrix(0.9302326,0,0,1.2359551,-10.575969,6.1536003)" />
    <linearGradient
       x1="35.007519"
       y1="23.178743"
       x2="35.007519"
       y2="4.9945626"
       id="linearGradient2461"
       xlink:href="#linearGradient3587-6-5"
       gradientUnits="userSpaceOnUse"
       gradientTransform="translate(-24.785715,-2.035714)" />
    <linearGradient
       x1="15.669166"
       y1="-2.6219723"
       x2="15.669166"
       y2="11.969362"
       id="linearGradient2424"
       xlink:href="#linearGradient3587-6-5"
       gradientUnits="userSpaceOnUse"
       gradientTransform="matrix(-0.9302326,0,0,-1.2359551,20.455487,10.539171)" />
    <linearGradient
       x1="35.007519"
       y1="23.178743"
       x2="35.007519"
       y2="4.9945626"
       id="linearGradient2427"
       xlink:href="#linearGradient3587-6-5"
       gradientUnits="userSpaceOnUse"
       gradientTransform="matrix(-1,0,0,-1,34.665233,18.728485)" />
    <linearGradient
       x1="35.007519"
       y1="23.178743"
       x2="35.007519"
       y2="4.9945626"
       id="linearGradient2434"
       xlink:href="#linearGradient3587-6-5"
       gradientUnits="userSpaceOnUse"
       gradientTransform="matrix(-1,0,0,-1,34.665233,18.728485)" />
    <linearGradient
       x1="15.669166"
       y1="-2.6219723"
       x2="15.669166"
       y2="11.969362"
       id="linearGradient2436"
       xlink:href="#linearGradient3587-6-5"
       gradientUnits="userSpaceOnUse"
       gradientTransform="matrix(-0.9302326,0,0,-1.2359551,20.455487,10.539171)" />
    <linearGradient
       x1="15.669166"
       y1="-2.6219723"
       x2="15.669166"
       y2="11.969362"
       id="linearGradient2439"
       xlink:href="#linearGradient3587-6-5"
       gradientUnits="userSpaceOnUse"
       gradientTransform="matrix(-0.9302326,0,0,-1.2359551,34.575969,17.8464)" />
    <linearGradient
       x1="35.007519"
       y1="23.178743"
       x2="35.007519"
       y2="4.9945626"
       id="linearGradient2442"
       xlink:href="#linearGradient3587-6-5"
       gradientUnits="userSpaceOnUse"
       gradientTransform="matrix(-1,0,0,-1,48.785715,26.035714)" />
    <linearGradient
       x1="35.007519"
       y1="23.178743"
       x2="35.007519"
       y2="4.9945626"
       id="linearGradient2444"
       xlink:href="#linearGradient3587-6-5"
       gradientUnits="userSpaceOnUse"
       gradientTransform="translate(-24.785715,-2.035714)" />
    <linearGradient
       x1="15.669166"
       y1="-2.6219723"
       x2="15.669166"
       y2="11.969362"
       id="linearGradient2446"
       xlink:href="#linearGradient3587-6-5"
       gradientUnits="userSpaceOnUse"
       gradientTransform="matrix(0.9302326,0,0,1.2359551,-10.575969,6.1536003)" />
    <linearGradient
       x1="15.669166"
       y1="-2.6219723"
       x2="15.669166"
       y2="11.969362"
       id="linearGradient2449"
       xlink:href="#linearGradient3587-6-5"
       gradientUnits="userSpaceOnUse"
       gradientTransform="matrix(0.9302326,0,0,1.2359551,-10.575969,6.1536003)" />
    <linearGradient
       x1="35.007519"
       y1="23.178743"
       x2="35.007519"
       y2="4.9945626"
       id="linearGradient2452"
       xlink:href="#linearGradient3587-6-5"
       gradientUnits="userSpaceOnUse"
       gradientTransform="translate(-24.785715,-2.035714)" />
  </defs>
  <path
     d="M 12,5 C 7.5840001,5 3.9999998,8.5840001 4,13 C 4,17.416 7.5840002,21 12,21 C 16.416,21 20,17.416 20,13 C 20,8.5840001 16.416,5.0000002 12,5 z M 12,10 C 13.656,10 15,11.344 15,13 C 15,14.656 13.656,16 12,16 C 10.344,16 9,14.656 9,13 C 9.0000001,11.344 10.344,10 12,10 z"
     id="path3229"
     style="opacity:0.6;fill:#ffffff;fill-opacity:1;fill-rule:evenodd;stroke:none;stroke-width:1;stroke-linecap:butt;stroke-linejoin:miter;marker:none;marker-start:none;marker-mid:none;marker-end:none;stroke-miterlimit:4;stroke-dasharray:none;stroke-dashoffset:0;stroke-opacity:1;visibility:visible;display:inline;overflow:visible;enable-background:accumulate" />
  <path
     d="M 12,4 C 7.5840001,4 3.9999998,7.5840001 4,12 C 4,14.65349 5.2902415,17.013114 7.28125,18.46875 L 10.21875,14.40625 C 9.4817319,13.859473 9,12.987512 9,12 C 9.0000001,10.344 10.344,9 12,9 L 12,4 z M 10.84375,14.75 C 11.026683,14.827977 11.206813,14.897208 11.40625,14.9375 C 11.211016,14.897516 11.023188,14.825938 10.84375,14.75 z M 11.40625,14.9375 C 11.595967,14.975828 11.799095,15 12,15 C 11.793,15 11.601484,14.977484 11.40625,14.9375 z M 8.53125,19.1875 C 8.7576602,19.296895 8.9811004,19.411933 9.21875,19.5 C 8.9766208,19.410736 8.7616771,19.298876 8.53125,19.1875 z"
     id="path3170"
     style="opacity:0.41999996;fill:url(#linearGradient2452);fill-opacity:1;fill-rule:evenodd;stroke:none;stroke-width:1;stroke-linecap:butt;stroke-linejoin:miter;marker:none;marker-start:none;marker-mid:none;marker-end:none;stroke-miterlimit:4;stroke-dasharray:none;stroke-dashoffset:0;stroke-opacity:1;visibility:visible;display:inline;overflow:visible;enable-background:accumulate" />
  <path
     d="M 12,4 L 12,9 C 13.656,9.0000001 15,10.344 15,12 C 15,13.656 13.656,15 12,15 C 11.332163,15 10.71605,14.776857 10.21875,14.40625 L 7.28125,18.46875 C 8.603685,19.434667 10.23854,20 12,20 C 16.416,20 20,16.416 20,12 C 20,7.5840001 16.416,4.0000002 12,4 z"
     id="path3288"
     style="opacity:0.7;fill:url(#linearGradient2449);fill-opacity:1;fill-rule:nonzero;stroke:none;stroke-width:1;stroke-linecap:butt;stroke-linejoin:miter;marker:none;marker-start:none;marker-mid:none;marker-end:none;stroke-miterlimit:4;stroke-dasharray:none;stroke-dashoffset:0;stroke-opacity:1;visibility:visible;display:inline;overflow:visible;enable-background:accumulate" />
</svg>

<?xml version="1.0" encoding="UTF-8" standalone="no"?>
<!-- Created with Inkscape (http://www.inkscape.org/) -->
<svg id="svg2" xmlns="http://www.w3.org/2000/svg" height="24" width="24" version="1.0" xmlns:xlink="http://www.w3.org/1999/xlink">
 <defs id="defs4">
  <linearGradient id="linearGradient3587-6-5">
   <stop id="stop3589-9-2" offset="0"/>
   <stop id="stop3591-7-4" style="stop-color:#363636" offset="1"/>
  </linearGradient>
  <linearGradient id="linearGradient2449" y2="11.969" xlink:href="#linearGradient3587-6-5" gradientUnits="userSpaceOnUse" x2="15.669" gradientTransform="matrix(.93023 0 0 1.236 -10.576 6.1536)" y1="-2.622" x1="15.669"/>
  <linearGradient id="linearGradient2452" y2="4.9946" xlink:href="#linearGradient3587-6-5" gradientUnits="userSpaceOnUse" x2="35.008" gradientTransform="translate(-24.786 -2.0357)" y1="23.179" x1="35.008"/>
 </defs>
 <path id="path3229" style="opacity:.6;fill-rule:evenodd;fill:#fff" d="m12 5c-4.416 0-8 3.584-8 8s3.584 8 8 8 8-3.584 8-8-3.584-8-8-8zm0 5c1.656 0 3 1.344 3 3s-1.344 3-3 3-3-1.344-3-3 1.344-3 3-3z"/>
 <path id="path3170" style="opacity:0.42;fill-rule:evenodd;fill:url(#linearGradient2452)" d="m12 4c-4.416 0-8 3.584-8 8 0 2.653 1.2902 5.013 3.2812 6.469l2.9378-4.063c-0.7373-0.547-1.219-1.418-1.219-2.406 0-1.656 1.344-3 3-3v-5zm-1.156 10.75c0.183 0.078 0.363 0.147 0.562 0.188-0.195-0.04-0.383-0.112-0.562-0.188zm0.562 0.188c0.19 0.038 0.393 0.062 0.594 0.062-0.207 0-0.399-0.023-0.594-0.062zm-2.8748 4.25c0.2265 0.109 0.4499 0.224 0.6876 0.312-0.2422-0.089-0.4571-0.201-0.6876-0.312z"/>
 <path id="path3288" style="opacity:.7;fill:url(#linearGradient2449)" d="m12 4v5c1.656 0 3 1.344 3 3s-1.344 3-3 3c-0.668 0-1.284-0.223-1.781-0.594l-2.9378 4.063c1.3225 0.966 2.9578 1.531 4.7188 1.531 4.416 0 8-3.584 8-8s-3.584-8-8-8z"/>
</svg>
